web/src/lib/icons/undo.svg

<svg xmlns="http://www.w3.org/2000/svg" viewBox="0 0 266 288"><path fill="#ff7c01" d="M110.6 48.23q9.63-.63 12.91-.88c16.18-1.2 32.41.35 48.32 4.31 24.38 6.06 46.81 19.21 62.7 38.38q14.59 17.59 21.31 38.1 13.27 40.51-.36 80.84-4.47 13.21-14.45 26.6-29.72 39.88-78.46 46.18c-20.62 2.67-42.13-1.12-61.09-9.72-16.37-7.43-24.18-25.71-15.03-41.98 4.48-7.96 15.12-12.7 23.81-10.86q6.44 1.35 12.27 2.21c16.33 2.39 34.73.17 48.48-9.15q14.38-9.74 18.84-25.34c6.06-21.26.14-40.37-16.72-54.64q-5.39-4.56-13.01-7.86-13.97-6.03-28.88-6.33-13.33-.27-20.52.09a.3.3 0 0 0-.29.31q.22 21.33.45 35.69.06 3.96-2.6 8.12c-6.05 9.47-16.31 11.1-24.86 4.09q-3.98-3.26-7.26-6.03-19.34-16.31-60.89-50.6-6.52-5.39-8.13-8.12c-4.38-7.43-2-16.45 3.99-22.26q25.03-24.32 61.2-60.55 4.9-4.91 11.47-11.26a5.02 4.76-80.2 0 1 1.06-.79c8.86-4.91 19.98-2.35 24.09 7.45q.98 2.32.85 7.72-.33 12.74 0 25.55a.75.75 0 0 0 .8.73"/></svg>

<svg xmlns="http://www.w3.org/2000/svg" version="1.1" viewBox="0.00 0.00 266.00 288.00">
<path fill="#ff7c01" d="
  M 110.60 48.23
  Q 120.23 47.60 123.51 47.35
  C 139.69 46.15 155.92 47.70 171.83 51.66
  C 196.21 57.72 218.64 70.87 234.53 90.04
  Q 249.12 107.63 255.84 128.14
  Q 269.11 168.65 255.48 208.98
  Q 251.01 222.19 241.03 235.58
  Q 211.31 275.46 162.57 281.76
  C 141.95 284.43 120.44 280.64 101.48 272.04
  C 85.11 264.61 77.30 246.33 86.45 230.06
  C 90.93 222.10 101.57 217.36 110.26 219.20
  Q 116.70 220.55 122.53 221.41
  C 138.86 223.80 157.26 221.58 171.01 212.26
  Q 185.39 202.52 189.85 186.92
  C 195.91 165.66 189.99 146.55 173.13 132.28
  Q 167.74 127.72 160.12 124.42
  Q 146.15 118.39 131.24 118.09
  Q 117.91 117.82 110.72 118.18
  A 0.30 0.30 0.0 0 0 110.43 118.49
  Q 110.65 139.82 110.88 154.18
  Q 110.94 158.14 108.28 162.30
  C 102.23 171.77 91.97 173.40 83.42 166.39
  Q 79.44 163.13 76.16 160.36
  Q 56.82 144.05 15.27 109.76
  Q 8.75 104.37 7.14 101.64
  C 2.76 94.21 5.14 85.19 11.13 79.38
  Q 36.16 55.06 72.33 18.83
  Q 77.23 13.92 83.80 7.57
  A 5.02 4.76 -80.2 0 1 84.86 6.78
  C 93.72 1.87 104.84 4.43 108.95 14.23
  Q 109.93 16.55 109.80 21.95
  Q 109.47 34.69 109.80 47.50
  A 0.75 0.75 0.0 0 0 110.60 48.23
  Z"
/>
</svg>
